X:86
T: Gestern Abend in der stillen Ruh
N: D0098
O: Europa, Mitteleuropa, Deutschland, Baden, Freiburg i. Brsg.
N: Inzipit = Variante zum Lied
R: Liebes - Lied
M: 3/4
L: 1/16
K: C
C2G2 | G2G2G2c2c2A2 | G4E4
A3G | B6A2G3FF2E2 | F2G2E4
G2G2 | F2A2D4B3B | c3AG2A2
A3G | G2F2D4A3A | B2G2G4
C2G2 | G2G2G2c2c2A2 | G4E2zAA2G2 | B4z2
A2G2F2F2E2 | F2G2E4

@@@ Tune index: 2608
